X:231
T:Gigue du sucre
M:6/8
L:1/8
K:G
D2G D2G | DGA B3 | cBc ABc |e2d B2G| D2G D2G | DGA B3 | cBc DEF | GBA G3 ::
g3 f3 | ece d3 | cBc ABc | e2d B2d| g3 fgf | efe d3 | cBc DEF | GBA G3 :|

